X: 23325
T: Legend Of Lisalway, The
R: jig
M: 6/8
K: Emixolydian
|:F2 E ~E2 B|~F2 E EDB,|~F3 EDB,|A,B,D FBA|
FEE ~E2 B|~F3 EDB,|A,B,C D2 E|FED FED:|
|:~E2 B G2 B|cBA Bcd|~E3 GBE|FDB, DEF|
~E3 GAB|def e2 f|edA ~B2 d|1 DFA BAF:|2 DFA BA=G||

